usr/share/icons/Stylish/96/mimetypes/x-office-spreadsheet.svg

<?xml version="1.0" encoding="UTF-8" standalone="no"?>
<!-- Created with Inkscape (http://www.inkscape.org/) -->

<svg
   width="96"
   height="96"
   viewBox="0 0 96 96.000006"
   version="1.1"
   id="svg5"
   inkscape:version="1.2.1 (9c6d41e410, 2022-07-14)"
   sodipodi:docname="x-office-spreadsheet.svg"
   xmlns:inkscape="http://www.inkscape.org/namespaces/inkscape"
   xmlns:sodipodi="http://sodipodi.sourceforge.net/DTD/sodipodi-0.dtd"
   xmlns="http://www.w3.org/2000/svg"
   xmlns:svg="http://www.w3.org/2000/svg">
  <sodipodi:namedview
     id="namedview7"
     pagecolor="#ffffff"
     bordercolor="#000000"
     borderopacity="0.25"
     inkscape:showpageshadow="2"
     inkscape:pageopacity="0.0"
     inkscape:pagecheckerboard="0"
     inkscape:deskcolor="#d1d1d1"
     inkscape:document-units="px"
     showgrid="false"
     inkscape:zoom="8.5208333"
     inkscape:cx="47.94132"
     inkscape:cy="48"
     inkscape:window-width="1920"
     inkscape:window-height="1004"
     inkscape:window-x="0"
     inkscape:window-y="0"
     inkscape:window-maximized="1"
     inkscape:current-layer="svg5" />
  <defs
     id="defs2" />
  <path
     id="rect234"
     style="opacity:0.2;stroke-width:1.5;stroke-linecap:round;stroke-linejoin:round"
     d="m 20,7 h 38 l 24,24 v 54 c 0,3.324 -2.676,6 -6,6 H 20 c -3.324,0 -6,-2.676 -6,-6 V 13 c 0,-3.324 2.676,-6 6,-6 z"
     sodipodi:nodetypes="sccssssss" />
  <path
     id="rect448"
     style="fill:#5f9c56;fill-opacity:1;stroke-width:1.5;stroke-linecap:round;stroke-linejoin:round"
     d="m 20,6 h 38 l 9,15 15,9 v 54 c 0,3.324 -2.676,6 -6,6 H 20 c -3.324,0 -6,-2.676 -6,-6 V 12 c 0,-3.324 2.676,-6 6,-6 z"
     sodipodi:nodetypes="scccssssss" />
  <path
     d="M 82,31 H 64 c -3.324,0 -6,-2.676 -6,-6 V 6 l 24,24 z"
     style="opacity:0.2;fill:#000000;stroke-width:1.5;stroke-linecap:round;stroke-linejoin:round"
     id="path611"
     sodipodi:nodetypes="cssccc" />
  <path
     id="rect600"
     style="fill:#a0c89b;fill-opacity:1;stroke-width:1.5;stroke-linecap:round;stroke-linejoin:round"
     d="M 82,30 H 64 c -3.324,0 -6,-2.676 -6,-6 V 6 l 12,12 z"
     sodipodi:nodetypes="cssccc" />
  <path
     id="rect1373"
     style="fill:#ffffff;stroke-width:4.32048;stroke-linecap:round;stroke-linejoin:round"
     d="M 26,46 V 74.000002 H 70 V 46 Z m 4,4.000002 h 16 v 8 H 30 Z m 20,0 h 16 v 8 H 50 Z m -20,12 h 16 v 8 H 30 Z m 20,0 h 16 v 8 H 50 Z"
     sodipodi:nodetypes="ccccccccccccccccccccccccc" />
</svg>

<?xml version="1.0" encoding="UTF-8" standalone="no"?>
<!-- Created with Inkscape (http://www.inkscape.org/) -->

<svg
   width="96"
   height="96"
   viewBox="0 0 96 96.000006"
   version="1.1"
   id="svg5"
   inkscape:version="1.2.2 (1:1.2.2+202305151914+b0a8486541)"
   sodipodi:docname="x-office-spreadsheet.svg"
   xmlns:inkscape="http://www.inkscape.org/namespaces/inkscape"
   xmlns:sodipodi="http://sodipodi.sourceforge.net/DTD/sodipodi-0.dtd"
   xmlns:xlink="http://www.w3.org/1999/xlink"
   xmlns="http://www.w3.org/2000/svg"
   xmlns:svg="http://www.w3.org/2000/svg">
  <sodipodi:namedview
     id="namedview7"
     pagecolor="#ffffff"
     bordercolor="#000000"
     borderopacity="0.25"
     inkscape:showpageshadow="2"
     inkscape:pageopacity="0.0"
     inkscape:pagecheckerboard="0"
     inkscape:deskcolor="#d1d1d1"
     inkscape:document-units="px"
     showgrid="false"
     inkscape:zoom="8.2291667"
     inkscape:cx="47.939241"
     inkscape:cy="48"
     inkscape:window-width="1920"
     inkscape:window-height="1012"
     inkscape:window-x="0"
     inkscape:window-y="0"
     inkscape:window-maximized="1"
     inkscape:current-layer="svg5" />
  <defs
     id="defs2">
    <linearGradient
       inkscape:collect="always"
       id="linearGradient871">
      <stop
         style="stop-color:#4ba41c;stop-opacity:1;"
         offset="0"
         id="stop867" />
      <stop
         style="stop-color:#8ed64e;stop-opacity:1;"
         offset="1"
         id="stop869" />
    </linearGradient>
    <linearGradient
       inkscape:collect="always"
       xlink:href="#linearGradient871"
       id="linearGradient1318"
       x1="20"
       y1="6"
       x2="76"
       y2="90"
       gradientUnits="userSpaceOnUse" />
  </defs>
  <path
     id="rect234"
     style="opacity:0.2;stroke-width:1.5;stroke-linecap:round;stroke-linejoin:round"
     d="m 20,7 h 38 l 24,24 v 54 c 0,3.324 -2.676,6 -6,6 H 20 c -3.324,0 -6,-2.676 -6,-6 V 13 c 0,-3.324 2.676,-6 6,-6 z"
     sodipodi:nodetypes="sccssssss" />
  <path
     id="rect448"
     style="fill:url(#linearGradient1318);fill-opacity:1;stroke-width:1.5;stroke-linecap:round;stroke-linejoin:round"
     d="m 20,6 h 38 l 9,15 15,9 v 54 c 0,3.324 -2.676,6 -6,6 H 20 c -3.324,0 -6,-2.676 -6,-6 V 12 c 0,-3.324 2.676,-6 6,-6 z"
     sodipodi:nodetypes="scccssssss" />
  <path
     d="M 82,31 H 64 c -3.324,0 -6,-2.676 -6,-6 V 6 l 24,24 z"
     style="opacity:0.2;fill:#000000;stroke-width:1.5;stroke-linecap:round;stroke-linejoin:round"
     id="path611"
     sodipodi:nodetypes="cssccc" />
  <path
     id="rect600"
     style="fill:#8fde85;fill-opacity:1;stroke-width:1.5;stroke-linecap:round;stroke-linejoin:round"
     d="M 82,30 H 64 c -3.324,0 -6,-2.676 -6,-6 V 6 l 12,12 z"
     sodipodi:nodetypes="cssccc" />
  <path
     id="rect1373"
     style="fill:#ffffff;stroke-width:4.32048;stroke-linecap:round;stroke-linejoin:round"
     d="M 30 46 A 3.9999981 4 0 0 0 26 50 L 26 70 A 3.9999981 4 0 0 0 30 74 L 66 74 A 3.9999981 4 0 0 0 70 70 L 70 50 A 3.9999981 4 0 0 0 66 46 L 30 46 z M 30 50 L 46 50 L 46 58 L 30 58 L 30 50 z M 50 50 L 66 50 L 66 58 L 50 58 L 50 50 z M 30 62 L 46 62 L 46 70 L 30 70 L 30 62 z M 50 62 L 66 62 L 66 70 L 50 70 L 50 62 z " />
</svg>
